communes/198.svg

<?xml version="1.0" encoding="UTF-8" standalone="no"?>
<svg
   xmlns:dc="http://purl.org/dc/elements/1.1/"
   xmlns:cc="http://creativecommons.org/ns#"
   xmlns:rdf="http://www.w3.org/1999/02/22-rdf-syntax-ns#"
   xmlns:svg="http://www.w3.org/2000/svg"
   xmlns="http://www.w3.org/2000/svg"
   xmlns:sodipodi="http://sodipodi.sourceforge.net/DTD/sodipodi-0.dtd"
   xmlns:inkscape="http://www.inkscape.org/namespaces/inkscape"
   version="1.0"
   width="235.24924"
   height="275.55811"
   id="svg2780"
   sodipodi:docname="198.svg">
  <metadata
     id="metadata12">
    <rdf:RDF>
      <cc:Work
         rdf:about="">
        <dc:format>image/svg+xml</dc:format>
        <dc:type
           rdf:resource="http://purl.org/dc/dcmitype/StillImage" />
      </cc:Work>
    </rdf:RDF>
  </metadata>
  <sodipodi:namedview
     pagecolor="#ffffff"
     bordercolor="#666666"
     borderopacity="1"
     objecttolerance="10"
     gridtolerance="10"
     guidetolerance="10"
     inkscape:pageopacity="0"
     inkscape:pageshadow="2"
     inkscape:window-width="640"
     inkscape:window-height="480"
     id="namedview10" />
  <defs
     id="defs2782" />
  <path
     d="M 0.99921,0.99922 L 5.24013,179.13111 C 8.26934,306.36817 226.97987,306.36817 230.00909,179.13111 L 234.25002,0.99922 L 0.99921,0.99922 z "
     style="fill:#ffffff;fill-opacity:1;fill-rule:evenodd;stroke:#000000;stroke-width:1.99842525;stroke-linecap:butt;stroke-miterlimit:4;stroke-dasharray:none;stroke-dashoffset:0;stroke-opacity:1"
     id="path13047" />
  <path
     d="M 117.63378,110.59751 L 117.63378,163.72251 L 230.38378,163.72251 L 231.63378,110.59751 L 117.63378,110.59751 z "
     style="fill:#d64229;fill-opacity:1;fill-rule:evenodd;stroke:#000000;stroke-width:0.99921262;stroke-linecap:round;stroke-linejoin:miter;stroke-miterlimit:4;stroke-dasharray:none;stroke-dashoffset:0;stroke-opacity:1"
     id="rect6295" />
  <path
     d="M 117.63378,1.00376 L 117.63378,57.44126 L 232.91503,57.44126 L 234.25878,1.00376 L 117.63378,1.00376 z "
     style="fill:#d64229;fill-opacity:1;fill-rule:evenodd;stroke:#000000;stroke-width:0.99921262;stroke-linecap:round;stroke-linejoin:miter;stroke-miterlimit:4;stroke-dasharray:none;stroke-dashoffset:0;stroke-opacity:1"
     id="rect7266" />
  <path
     d="M 117.63378,216.87876 L 117.63378,274.56626 C 160.72943,274.56626 203.80954,255.32762 221.57128,216.87876 L 117.63378,216.87876 z "
     style="fill:#d64229;fill-opacity:1;fill-rule:evenodd;stroke:#000000;stroke-width:0.99921262;stroke-linecap:round;stroke-linejoin:miter;stroke-miterlimit:4;stroke-dasharray:none;stroke-dashoffset:0;stroke-opacity:1"
     id="rect7268" />
  <path
     d="M 117.62462,0.99922 L 117.62461,274.5589"
     style="fill:none;fill-opacity:1;fill-rule:evenodd;stroke:#000000;stroke-width:1.99842525;stroke-linecap:butt;stroke-miterlimit:4;stroke-dasharray:none;stroke-dashoffset:0;stroke-opacity:1"
     id="path13064" />
  <path
     d="M 117.62461,274.5589 C 173.05954,274.5589 228.49448,242.74964 230.00909,179.13111 L 234.25002,0.99922 L 117.62462,0.99922"
     style="fill:none;fill-opacity:1;fill-rule:evenodd;stroke:#000000;stroke-width:1.99842525;stroke-linecap:butt;stroke-miterlimit:4;stroke-dasharray:none;stroke-dashoffset:0;stroke-opacity:1"
     id="path13058" />
</svg>

<?xml version="1.0" encoding="UTF-8"?>
<svg version="1.0" viewBox="0 0 235.25 275.56" xmlns="http://www.w3.org/2000/svg" xmlns:cc="http://creativecommons.org/ns#" xmlns:dc="http://purl.org/dc/elements/1.1/" xmlns:rdf="http://www.w3.org/1999/02/22-rdf-syntax-ns#">
<metadata>
<rdf:RDF>
<cc:Work rdf:about="">
<dc:format>image/svg+xml</dc:format>
<dc:type rdf:resource="http://purl.org/dc/dcmitype/StillImage"/>
</cc:Work>
</rdf:RDF>
</metadata>
<path d="m0.99921 0.99922 4.2409 178.13c3.0292 127.24 221.74 127.24 224.77 0l4.2409-178.13h-233.25z" fill="#fff" fill-rule="evenodd" stroke="#000" stroke-width="1.9984"/>
<path d="m117.63 110.6v53.125h112.75l1.25-53.125h-114z" fill="#d64229" fill-rule="evenodd" stroke="#000" stroke-linecap="round" stroke-width=".99921"/>
<path d="m117.63 1.0038v56.438h115.28l1.3438-56.438h-116.62z" fill="#d64229" fill-rule="evenodd" stroke="#000" stroke-linecap="round" stroke-width=".99921"/>
<path d="m117.63 216.88v57.688c43.096 0 86.176-19.239 103.94-57.688h-103.94z" fill="#d64229" fill-rule="evenodd" stroke="#000" stroke-linecap="round" stroke-width=".99921"/>
<path d="m117.62 0.99922-1e-5 273.56" fill="none" stroke="#000" stroke-width="1.9984"/>
<path d="m117.62 274.56c55.435 0 110.87-31.809 112.38-95.428l4.2409-178.13h-116.63" fill="none" stroke="#000" stroke-width="1.9984"/>
</svg>
